X:1
T:Title
%%score { ( 1 4 ) | ( 2 3 ) }
L:1/8
M:4/4
K:Ab
V:1 treble nm="Grand Piano"
V:4 treble 
V:2 bass 
V:3 bass 
V:1
 z4 z2[Q:1/4=100] [CE][CF] | [CE][CA][CA]B c2 B2 | [CA]4 [CE]2 [CE][CE] | [CA][CA]BB c2 BA | %4
 B6 z2 | [CE][CA][CA]B c2 B2 | A4 [Fd]2 [Fd][=Ed] | cccA B2 B2 |[M:3/4] [CA]6 |[M:1/4] [CE][CF] | %10
[M:3/4] EB BB B2 |[M:1/4] EF |[M:4/4] [CE][Ec][Ec][Ec] [Ec]2 [Ec][E_c] | [EB]GEC B,2 [B,EG]2 | %14
 =D2 z2 z4 | [CE][CA][CA][CA] [CA]2 [DB][Ec] | [_Ge][Fd][Fd][Fd] [Fd]2 [Fd][=Ed] | %17
 cecA A2 c2[Q:1/4=99][Q:1/4=97][Q:1/4=96][Q:1/4=94][Q:1/4=93][Q:1/4=91][Q:1/4=90][Q:1/4=88][Q:1/4=87][Q:1/4=85][Q:1/4=84][Q:1/4=82][Q:1/4=81][Q:1/4=79][Q:1/4=78][Q:1/4=76] | %18
[M:3/4] B4 [CA]2 |] %19
V:2
 z4 z2 [A,,A,][A,,A,] | [A,,A,][A,,E,][A,,E,][E,G,D] [A,E]2 [E,G,D]2 | %2
 [A,,A,]4 [A,,A,]2 [A,,A,][A,,A,] | z4 z2 .[G,E]2 | E4 z4 | %5
 [A,,A,][A,,E,][A,,E,][E,G,D] [A,E]2 [E,G,D]2 | [F,A,C]4 [D,A,]2 [D,A,][D,A,] | %7
 [E,A,E][E,A,E][E,A,E][E,A,C] [E,G,D]2 [E,G,D]2 |[M:3/4] [A,,A,]6 |[M:1/4] [A,,A,][A,,A,] | %10
[M:3/4] [E,G,D][E,G,D] [E,G,D][E,G,D] [E,G,D]2 |[M:1/4] [E,G,D][E,G,D] | %12
[M:4/4] [A,,A,][A,,A,][A,,A,][A,,A,] [A,,A,]2 [A,,A,][A,,A,] | [B,,G,]G,E,C, B,,2 B,,2 | %14
 z2 B,2 z D[A,,A,][A,,A,] | [A,,A,][A,,E,][A,,E,][A,,E,] [A,,E,]2 [A,,E,G,][A,,A,] | %16
 [D,A,][D,A,][D,A,][D,A,] [D,A,]2 [B,,B,][D,B,] | [E,A,E][E,CE][F,A,=D][=E,A,D] [_E,CE]2 [E,A,E]2 | %18
[M:3/4] [E,G,D]4 [A,,A,]2 |] %19
V:3
 x8 | x8 | x8 | [A,,E,][A,,E,][E,G,D][E,G,D] [A,E]2 B,-[F,B,=D] | [E,G,]6 [A,,A,][A,,A,] | x8 | %6
 x8 | x8 |[M:3/4] x6 |[M:1/4] x2 |[M:3/4] x6 |[M:1/4] x2 |[M:4/4] x8 | x8 | B,,4 E,2 z2 | x8 | x8 | %17
 x8 |[M:3/4] x6 |] %19
V:4
 x8 | x8 | x8 | x8 | z4 D2 [CE][CF] | x8 | x8 | x8 |[M:3/4] x6 |[M:1/4] x2 |[M:3/4] x6 | %11
[M:1/4] x2 |[M:4/4] x8 | x8 | [A,F]4 .[G,B,E]2 [CE][CF] | x8 | x8 | x8 |[M:3/4] x6 |] %19

